images/rating/ico-holder.svg

<svg width="160" height="69" viewBox="0 0 160 69" version="1.1" xmlns="http://www.w3.org/2000/svg" xmlns:xlink="http://www.w3.org/1999/xlink">
<g id="Canvas" transform="translate(-104 1010)">
<g id="ICOHOLDER_LOGO2">
<g id="Group">
<g id="Shape">
<use xlink:href="#path0_fill" transform="translate(161.276 -962.319)" fill="#34495E"/>
</g>
<g id="Shape">
<use xlink:href="#path1_fill" transform="translate(173.653 -994.469)" fill="#34495E"/>
</g>
<g id="Shape">
<use xlink:href="#path2_fill" transform="translate(154.133 -1009.93)" fill="#34495E"/>
</g>
<g id="Shape">
<use xlink:href="#path3_fill" transform="translate(173.675 -962.341)" fill="#34495E"/>
</g>
<g id="Shape">
<use xlink:href="#path4_fill" transform="translate(154.111 -962.341)" fill="#34495E"/>
</g>
<g id="Shape">
<use xlink:href="#path5_fill" transform="translate(161.298 -1002.19)" fill="#34495E"/>
</g>
</g>
<g id="Group">
<g id="Shape">
<use xlink:href="#path6_fill" transform="translate(104.176 -985.732)" fill="#34495E"/>
</g>
<g id="Shape">
<use xlink:href="#path7_fill" transform="translate(111.065 -985.978)" fill="#34495E"/>
</g>
<g id="Shape">
<use xlink:href="#path8_fill" transform="translate(130.278 -985.933)" fill="#34495E"/>
</g>
<g id="Shape">
<use xlink:href="#path9_fill" transform="translate(153.695 -985.732)" fill="#34495E"/>
</g>
<g id="Shape">
<use xlink:href="#path10_fill" transform="translate(173.7 -985.933)" fill="#34495E"/>
</g>
<g id="Shape">
<use xlink:href="#path11_fill" transform="translate(197.117 -985.732)" fill="#34495E"/>
</g>
<g id="Shape">
<use xlink:href="#path12_fill" transform="translate(211.488 -985.732)" fill="#34495E"/>
</g>
<g id="Shape">
<use xlink:href="#path13_fill" transform="translate(232.528 -985.754)" fill="#34495E"/>
</g>
<g id="Shape">
<use xlink:href="#path14_fill" transform="translate(249.034 -985.71)" fill="#34495E"/>
</g>
</g>
</g>
</g>
<defs>
<path id="path0_fill" d="M 1.30873 1.34904L 21.4498 12.9375C 21.9822 13.2471 22.5811 13.4019 23.18 13.4019C 23.7789 13.4019 24.3778 13.2471 24.9102 12.9375L 45.0513 1.34904C 45.6058 1.01731 46.0716 0.552885 46.36 0L 42.5225 0L 23.6902 10.8365C 23.3796 11.0135 22.9804 11.0135 22.6698 10.8365L 3.83745 0L 0 0C 0.288364 0.552885 0.754182 1.01731 1.30873 1.34904Z"/>
<path id="path1_fill" d="M 9.00582 0.48101L 0 5.67812L 4.88 5.67812L 10.2258 2.60409C 10.5807 2.40505 11.0244 2.40505 11.3793 2.60409L 16.7251 5.67812L 21.6051 5.67812L 12.5993 0.48101C 11.5124 -0.160337 10.1149 -0.160337 9.00582 0.48101Z"/>
<path id="path2_fill" d="M 2.44 21.1423L 2.44 18.9308C 2.44 18.5548 2.63964 18.201 2.97236 18.024L 29.8124 2.56538C 30.1451 2.38846 30.5444 2.38846 30.8771 2.56538L 57.7171 18.024C 58.0498 18.201 58.2495 18.5548 58.2495 18.9308L 58.2495 21.1423L 60.6895 21.1423L 60.6895 18.9308C 60.6895 17.6923 60.024 16.5423 58.9371 15.9231L 32.0971 0.464423C 31.0102 -0.154808 29.6793 -0.154808 28.5924 0.464423L 1.75236 15.9231C 0.665455 16.5423 0 17.6923 0 18.9529L 0 21.1644L 2.44 21.1644L 2.44 21.1423Z"/>
<path id="path3_fill" d="M 10.7804 5.68365C 11.4015 5.68365 12.0225 5.52885 12.5771 5.19712L 21.5829 0L 16.7029 0L 11.3793 3.09615C 11.0244 3.29519 10.5807 3.29519 10.2258 3.09615L 4.88 0.0221154L 0 0.0221154L 9.00582 5.21923C 9.53818 5.52885 10.1593 5.68365 10.7804 5.68365Z"/>
<path id="path4_fill" d="M 58.2495 0.0221154L 58.2495 2.23365C 58.2495 2.60962 58.0498 2.96346 57.7171 3.14038L 30.8771 18.599C 30.5444 18.776 30.1451 18.776 29.8124 18.599L 2.97236 3.14038C 2.63964 2.96346 2.44 2.60962 2.44 2.23365L 2.44 0.0221154L 0 0.0221154L 0 2.23365C 0 3.47212 0.665455 4.62212 1.75236 5.24135L 28.5924 20.7C 29.1247 21.0096 29.7458 21.1644 30.3447 21.1644C 30.9436 21.1644 31.5647 21.0096 32.0971 20.7L 58.9371 5.24135C 60.024 4.62212 60.6895 3.47212 60.6895 2.21154L 60.6895 0L 58.2495 0L 58.2495 0.0221154Z"/>
<path id="path5_fill" d="M 45.0513 12.0529L 24.9102 0.464423C 23.8455 -0.154808 22.5145 -0.154808 21.4498 0.464423L 1.30873 12.0529C 0.754182 12.3846 0.288364 12.849 0 13.4019L 3.83745 13.4019L 22.6698 2.56538C 22.9804 2.38846 23.3796 2.38846 23.6902 2.56538L 42.5225 13.4019L 46.36 13.4019C 46.0495 12.849 45.6058 12.3625 45.0513 12.0529Z"/>
<path id="path6_fill" d="M 2.70702 20.3298L 0 20.3298L 0 0L 2.70702 0L 2.70702 20.3298Z"/>
<path id="path7_fill" d="M 15.2957 16.3755C 15.4498 16.3755 15.5818 16.4426 15.6919 16.5543L 16.7483 17.7383C 15.934 18.6989 14.9436 19.4585 13.7552 19.9947C 12.5667 20.5309 11.1802 20.7989 9.52957 20.7989C 8.07703 20.7989 6.77854 20.5532 5.6121 20.0394C 4.44567 19.5255 3.43329 18.833 2.61898 17.917C 1.80468 17.0011 1.14443 15.9064 0.682256 14.633C 0.220083 13.3596 0 11.9521 0 10.4106C 0 8.86915 0.242091 7.48404 0.726272 6.1883C 1.21045 4.91489 1.89271 3.82021 2.79505 2.90426C 3.67538 1.9883 4.73177 1.2734 5.96424 0.759574C 7.1967 0.245745 8.56121 0 10.0578 0C 11.5323 0 12.8088 0.223404 13.8652 0.692553C 14.9216 1.1617 15.89 1.78723 16.7043 2.56915L 15.8239 3.84255C 15.7579 3.93191 15.6919 4.02128 15.6039 4.06596C 15.5158 4.13298 15.4058 4.15532 15.2297 4.15532C 15.0977 4.15532 14.9876 4.11064 14.8556 4.02128C 14.7235 3.93191 14.5695 3.82021 14.3714 3.68617C 14.1953 3.55213 13.9752 3.41809 13.7111 3.2617C 13.447 3.10532 13.1609 2.97128 12.8088 2.83723C 12.4567 2.70319 12.0605 2.59149 11.5983 2.50213C 11.1362 2.41277 10.608 2.36809 10.0138 2.36809C 8.93535 2.36809 7.96699 2.54681 7.06465 2.9266C 6.18432 3.30638 5.41403 3.84255 4.77579 4.51277C 4.13755 5.20532 3.63136 6.05426 3.27923 7.03723C 2.9271 8.02021 2.75103 9.13723 2.75103 10.366C 2.75103 11.6394 2.9271 12.7564 3.27923 13.7617C 3.63136 14.767 4.13755 15.5936 4.75378 16.2862C 5.37001 16.9787 6.09629 17.4926 6.95461 17.85C 7.81293 18.2074 8.71527 18.3862 9.68363 18.3862C 10.2779 18.3862 10.8061 18.3415 11.2902 18.2745C 11.7744 18.2074 12.2146 18.0957 12.6107 17.9394C 13.0069 17.783 13.403 17.6043 13.7331 17.3585C 14.0853 17.1351 14.4374 16.8447 14.7895 16.5319C 15.0096 16.4426 15.1637 16.3755 15.2957 16.3755Z"/>
<path id="path8_fill" fill-rule="evenodd" d="M 19.0151 14.5883C 19.4773 13.3149 19.7194 11.9075 19.7194 10.3883C 19.7194 8.86914 19.4773 7.46173 19.0151 6.18829C 18.553 4.91492 17.8707 3.82019 17.0124 2.90424C 16.1541 1.98828 15.0977 1.27338 13.8872 0.759583C 12.6768 0.245728 11.3342 0 9.8597 0C 8.38515 0 7.04265 0.245728 5.83218 0.759583C 4.62173 1.27338 3.56534 1.98828 2.70702 2.90424C 1.84869 3.82019 1.18845 4.91492 0.704269 6.18829C 0.242096 7.46173 0 8.86914 0 10.3883C 0 11.9298 0.220078 13.3149 0.704269 14.5883C 1.16644 15.8617 1.84869 16.9564 2.70702 17.8723C 3.58734 18.8107 4.62173 19.5032 5.83218 20.017C 7.04265 20.5308 8.38515 20.7766 9.8597 20.7766C 11.3342 20.7766 12.6768 20.5308 13.8872 20.017C 15.0977 19.5032 16.1541 18.7883 17.0124 17.8723C 17.8707 16.9564 18.5309 15.8617 19.0151 14.5883ZM 16.4402 7.03723C 16.7703 8.0202 16.9464 9.13727 16.9464 10.3883C 16.9464 11.6394 16.7703 12.7564 16.4402 13.7394C 16.11 14.7224 15.6259 15.549 15.0096 16.2415C 14.3934 16.9117 13.6451 17.4479 12.7648 17.8054C 11.9065 18.1628 10.9161 18.3415 9.83769 18.3415C 8.75928 18.3415 7.79092 18.1628 6.91058 17.8054C 6.03026 17.4479 5.28198 16.9341 4.66574 16.2415C 4.04951 15.5713 3.56534 14.7224 3.23521 13.7394C 2.90509 12.7564 2.72902 11.6394 2.72902 10.3883C 2.72902 9.15961 2.90509 8.0202 3.23521 7.03723C 3.56534 6.03192 4.04951 5.20532 4.66574 4.51276C 5.28198 3.82025 6.03026 3.3064 6.91058 2.92664C 7.79092 2.54681 8.75928 2.3681 9.83769 2.3681C 10.9161 2.3681 11.8844 2.54681 12.7648 2.92664C 13.6451 3.3064 14.3934 3.82025 15.0096 4.51276C 15.6259 5.20532 16.11 6.05426 16.4402 7.03723Z"/>
<path id="path9_fill" d="M 16.2421 20.3298L 13.5131 20.3298L 13.5131 11.0809L 2.72902 11.0809L 2.72902 20.3298L 0 20.3298L 0 0L 2.72902 0L 2.72902 9.07021L 13.5131 9.07021L 13.5131 0L 16.2421 0L 16.2421 20.3298Z"/>
<path id="path10_fill" fill-rule="evenodd" d="M 19.0151 14.5883C 19.4773 13.3149 19.7194 11.9075 19.7194 10.3883C 19.7194 8.86914 19.4773 7.46173 19.0151 6.18829C 18.553 4.91492 17.8707 3.82019 17.0124 2.90424C 16.1541 1.98828 15.0977 1.27338 13.8872 0.759583C 12.6768 0.245728 11.3342 0 9.8597 0C 8.38515 0 7.04265 0.245728 5.83218 0.759583C 4.62173 1.27338 3.56534 1.98828 2.70702 2.90424C 1.84869 3.82019 1.18845 4.91492 0.704269 6.18829C 0.242096 7.46173 0 8.86914 0 10.3883C 0 11.9298 0.220078 13.3149 0.704269 14.5883C 1.16644 15.8617 1.84869 16.9564 2.70702 17.8723C 3.58734 18.8107 4.62173 19.5032 5.83218 20.017C 7.04265 20.5308 8.38515 20.7766 9.8597 20.7766C 11.3342 20.7766 12.6768 20.5308 13.8872 20.017C 15.0977 19.5032 16.1541 18.7883 17.0124 17.8723C 17.8707 16.9564 18.5309 15.8617 19.0151 14.5883ZM 16.4182 7.03723C 16.7483 8.0202 16.9243 9.13727 16.9243 10.3883C 16.9243 11.6394 16.7703 12.7564 16.4182 13.7394C 16.088 14.7224 15.6039 15.549 14.9876 16.2415C 14.3714 16.9117 13.6011 17.4479 12.7428 17.8054C 11.8845 18.1628 10.8941 18.3415 9.81569 18.3415C 8.73727 18.3415 7.76892 18.1628 6.88858 17.8054C 6.00826 17.4479 5.25998 16.9341 4.64374 16.2415C 4.02751 15.5713 3.54333 14.7224 3.21321 13.7394C 2.88309 12.7564 2.70702 11.6394 2.70702 10.3883C 2.70702 9.15961 2.88309 8.0202 3.21321 7.03723C 3.54333 6.03192 4.02751 5.20532 4.64374 4.51276C 5.25998 3.82025 6.00826 3.3064 6.88858 2.92664C 7.76892 2.54681 8.73727 2.3681 9.81569 2.3681C 10.8941 2.3681 11.8624 2.54681 12.7428 2.92664C 13.6231 3.3064 14.3714 3.82025 14.9876 4.51276C 15.6039 5.20532 16.088 6.05426 16.4182 7.03723Z"/>
<path id="path11_fill" d="M 2.70702 18.0287L 11.3783 18.0287L 11.3783 20.3298L 0 20.3298L 0 0L 2.70702 0L 2.70702 18.0287Z"/>
<path id="path12_fill" fill-rule="evenodd" d="M 16.6382 14.3425C 17.1004 13.0915 17.3425 11.7064 17.3425 10.1873C 17.3425 8.66809 17.1004 7.28296 16.6382 6.03192C 16.1761 4.78082 15.5158 3.7085 14.6355 2.81488C 13.7552 1.92126 12.7208 1.2287 11.5103 0.737244C 10.2999 0.245728 8.95735 0 7.4828 0L 0 0L 0 20.3298L 7.4828 20.3298C 8.95735 20.3298 10.2999 20.084 11.5103 19.5925C 12.7208 19.1234 13.7772 18.4308 14.6355 17.5372C 15.4938 16.666 16.1541 15.5936 16.6382 14.3425ZM 14.0633 6.83618C 14.3934 7.81915 14.5695 8.93622 14.5695 10.1873C 14.5695 11.4384 14.3934 12.533 14.0633 13.516C 13.7332 14.499 13.249 15.3256 12.6327 15.9958C 12.0165 16.6884 11.2682 17.2021 10.3879 17.5596C 9.50757 17.9171 8.5392 18.0958 7.4608 18.0958L 2.70702 18.0958L 2.70702 2.23407L 7.4608 2.23407C 8.5392 2.23407 9.50757 2.41278 10.3879 2.77026C 11.2682 3.12769 12.0165 3.66388 12.6327 4.33405C 13.249 5.02661 13.7332 5.85321 14.0633 6.83618Z"/>
<path id="path13_fill" d="M 12.3246 0.0446809L 12.3246 2.27872L 2.70702 2.27872L 2.70702 9.02553L 10.4979 9.02553L 10.4979 11.1702L 2.70702 11.1702L 2.70702 18.0957L 12.3246 18.0957L 12.3246 20.3298L 0 20.3298L 0 0L 12.3246 0L 12.3246 0.0446809Z"/>
<path id="path14_fill" fill-rule="evenodd" d="M 2.68501 20.3298L 2.68501 11.8405L 2.68501 11.8181L 4.79781 11.8181C 5.17194 11.8181 5.45805 11.8851 5.63411 11.9745C 5.81018 12.0862 5.98625 12.2426 6.1403 12.4659L 11.3343 19.7266C 11.5764 20.1064 11.9505 20.3074 12.4347 20.3074L 14.8336 20.3074L 9.00137 12.2426C 8.73727 11.8628 8.42917 11.5723 8.09903 11.3713C 8.86932 11.1926 9.55157 10.9244 10.1678 10.567C 10.762 10.2096 11.2902 9.7851 11.7084 9.29364C 12.1266 8.80212 12.4567 8.24359 12.6768 7.6181C 12.8969 6.99255 13.0069 6.32233 13.0069 5.60742C 13.0069 4.75848 12.8528 3.97662 12.5667 3.28406C 12.2806 2.59149 11.8184 1.98828 11.2242 1.49683C 10.63 1.00531 9.85971 0.647888 8.93536 0.379761C 8.01102 0.134033 6.9326 0 5.65613 0L 0 0L 0 20.3298L 2.68501 20.3298ZM 5.52408 9.82977L 2.68501 9.82977L 2.68501 2.14465L 5.65613 2.14465C 7.21872 2.14465 8.38516 2.43506 9.17746 3.06061C 9.96976 3.68616 10.3659 4.60211 10.3659 5.80847C 10.3659 6.41168 10.2559 6.94781 10.0578 7.43933C 9.83771 7.93085 9.52957 8.35529 9.13342 8.71277C 8.71527 9.07019 8.20908 9.33826 7.61487 9.53931C 7.02063 9.74042 6.31638 9.82977 5.52408 9.82977Z"/>
</defs>
</svg>

<svg width="160" height="69" xmlns="http://www.w3.org/2000/svg" xmlns:xlink="http://www.w3.org/1999/xlink"><use xlink:href="#path0_fill" transform="translate(57.276 47.681)" fill="#34495E"/><use xlink:href="#path1_fill" transform="translate(69.653 15.531)" fill="#34495E"/><use xlink:href="#path2_fill" transform="translate(50.133 .07)" fill="#34495E"/><use xlink:href="#path3_fill" transform="translate(69.675 47.659)" fill="#34495E"/><use xlink:href="#path4_fill" transform="translate(50.111 47.659)" fill="#34495E"/><use xlink:href="#path5_fill" transform="translate(57.298 7.81)" fill="#34495E"/><g fill="#34495E"><use xlink:href="#path6_fill" transform="translate(.176 24.268)"/><use xlink:href="#path7_fill" transform="translate(7.065 24.022)"/><use xlink:href="#path8_fill" transform="translate(26.278 24.067)"/><use xlink:href="#path9_fill" transform="translate(49.695 24.268)"/><use xlink:href="#path10_fill" transform="translate(69.7 24.067)"/><use xlink:href="#path11_fill" transform="translate(93.117 24.268)"/><use xlink:href="#path12_fill" transform="translate(107.488 24.268)"/><use xlink:href="#path13_fill" transform="translate(128.528 24.246)"/><use xlink:href="#path14_fill" transform="translate(145.034 24.29)"/></g><defs><path id="path0_fill" d="M1.309 1.349l20.14 11.588c.533.31 1.132.465 1.731.465.599 0 1.198-.155 1.73-.464l20.141-11.59c.555-.332 1.02-.796 1.309-1.349h-3.837L23.69 10.836a1.04 1.04 0 0 1-1.02 0L3.837 0H0c.288.553.754 1.017 1.309 1.349z"/><path id="path1_fill" d="M9.006.481L0 5.678h4.88l5.346-3.074a1.189 1.189 0 0 1 1.153 0l5.346 3.074h4.88L12.6.481c-1.087-.641-2.484-.641-3.593 0z"/><path id="path2_fill" d="M2.44 21.142v-2.211c0-.376.2-.73.532-.907l26.84-15.459a1.134 1.134 0 0 1 1.065 0l26.84 15.459c.333.177.532.53.532.907v2.211h2.44v-2.211a3.463 3.463 0 0 0-1.752-3.008L32.097.464a3.538 3.538 0 0 0-3.505 0l-26.84 15.46A3.472 3.472 0 0 0 0 18.952v2.211h2.44v-.022z"/><path id="path3_fill" d="M10.78 5.684a3.48 3.48 0 0 0 1.797-.487L21.583 0h-4.88l-5.324 3.096a1.189 1.189 0 0 1-1.153 0L4.88.022H0L9.006 5.22c.532.31 1.153.465 1.774.465z"/><path id="path4_fill" d="M58.25.022v2.212c0 .376-.2.73-.533.906L30.877 18.6a1.134 1.134 0 0 1-1.065 0L2.972 3.14a1.023 1.023 0 0 1-.532-.906V.022H0v2.212A3.46 3.46 0 0 0 1.752 5.24l26.84 15.46c.533.31 1.154.464 1.753.464s1.22-.154 1.752-.464l26.84-15.459a3.472 3.472 0 0 0 1.753-3.03V0h-2.44v.022z"/><path id="path5_fill" d="M45.051 12.053L24.911.464a3.455 3.455 0 0 0-3.461 0L1.309 12.053c-.555.332-1.02.796-1.309 1.349h3.837L22.67 2.565c.31-.177.71-.177 1.02 0l18.832 10.837h3.838c-.31-.553-.754-1.04-1.309-1.35z"/><path id="path6_fill" d="M2.707 20.33H0V0h2.707v20.33z"/><path id="path7_fill" d="M15.296 16.375c.154 0 .286.068.396.18l1.056 1.183a8.408 8.408 0 0 1-2.993 2.257c-1.188.536-2.575.804-4.225.804-1.453 0-2.751-.246-3.918-.76-1.166-.514-2.179-1.206-2.993-2.122a10.076 10.076 0 0 1-1.937-3.284C.22 13.36 0 11.953 0 10.411c0-1.542.242-2.927.726-4.223.484-1.273 1.167-2.368 2.069-3.284A9.3 9.3 0 0 1 5.965.76C7.196.246 8.56 0 10.057 0c1.474 0 2.75.223 3.807.693a9.862 9.862 0 0 1 2.84 1.876l-.881 1.274c-.066.089-.132.178-.22.223-.088.067-.198.09-.374.09a.64.64 0 0 1-.374-.135c-.133-.09-.287-.2-.485-.335a7.092 7.092 0 0 0-.66-.424 5.742 5.742 0 0 0-.902-.425 7.25 7.25 0 0 0-1.21-.335 8.404 8.404 0 0 0-1.585-.134c-1.079 0-2.047.179-2.95.559-.88.38-1.65.916-2.288 1.586-.638.692-1.145 1.541-1.497 2.524-.352.983-.528 2.1-.528 3.329 0 1.273.176 2.39.528 3.396a7.45 7.45 0 0 0 1.475 2.524 5.955 5.955 0 0 0 2.2 1.564 7.014 7.014 0 0 0 2.73.536c.594 0 1.122-.044 1.606-.111a5.735 5.735 0 0 0 1.32-.336c.397-.156.793-.335 1.123-.58a8.516 8.516 0 0 0 1.056-.827c.22-.09.375-.157.507-.157z"/><path id="path8_fill" fill-rule="evenodd" d="M19.015 14.588c.462-1.273.704-2.68.704-4.2 0-1.519-.242-2.926-.704-4.2a9.5 9.5 0 0 0-2.003-3.284c-.858-.916-1.914-1.63-3.125-2.144C12.677.246 11.334 0 9.86 0 8.385 0 7.043.246 5.832.76c-1.21.513-2.267 1.228-3.125 2.144-.858.916-1.519 2.01-2.003 3.284C.242 7.462 0 8.87 0 10.388c0 1.542.22 2.927.704 4.2a9.5 9.5 0 0 0 2.003 3.284c.88.939 1.915 1.631 3.125 2.145s2.553.76 4.028.76c1.474 0 2.817-.246 4.027-.76s2.267-1.229 3.125-2.145c.859-.916 1.519-2.01 2.003-3.284zm-2.575-7.55c.33.982.506 2.1.506 3.35 0 1.251-.176 2.368-.506 3.351a7.122 7.122 0 0 1-1.43 2.502 6.198 6.198 0 0 1-2.245 1.564c-.859.358-1.849.537-2.927.537-1.079 0-2.047-.18-2.927-.537a5.938 5.938 0 0 1-2.245-1.564c-.616-.67-1.1-1.519-1.43-2.502-.33-.983-.507-2.1-.507-3.35 0-1.23.176-2.369.506-3.352a7.03 7.03 0 0 1 1.43-2.524c.617-.693 1.365-1.207 2.246-1.586.88-.38 1.848-.559 2.927-.559 1.078 0 2.046.179 2.927.559.88.38 1.628.893 2.245 1.586.616.692 1.1 1.541 1.43 2.524z"/><path id="path9_fill" d="M16.242 20.33h-2.729v-9.25H2.73v9.25H0V0h2.729v9.07h10.784V0h2.73v20.33z"/><path id="path10_fill" fill-rule="evenodd" d="M19.015 14.588c.462-1.273.704-2.68.704-4.2 0-1.519-.242-2.926-.704-4.2a9.5 9.5 0 0 0-2.003-3.284c-.858-.916-1.914-1.63-3.125-2.144C12.677.246 11.334 0 9.86 0 8.385 0 7.043.246 5.832.76c-1.21.513-2.267 1.228-3.125 2.144-.858.916-1.519 2.01-2.003 3.284C.242 7.462 0 8.87 0 10.388c0 1.542.22 2.927.704 4.2a9.5 9.5 0 0 0 2.003 3.284c.88.939 1.915 1.631 3.125 2.145s2.553.76 4.028.76c1.474 0 2.817-.246 4.027-.76s2.267-1.229 3.125-2.145c.859-.916 1.519-2.01 2.003-3.284zm-2.597-7.55c.33.982.506 2.1.506 3.35 0 1.251-.154 2.368-.506 3.351a7.122 7.122 0 0 1-1.43 2.502 6.39 6.39 0 0 1-2.245 1.564c-.859.358-1.849.537-2.927.537-1.079 0-2.047-.18-2.927-.537a5.938 5.938 0 0 1-2.245-1.564c-.616-.67-1.1-1.519-1.43-2.502-.33-.983-.507-2.1-.507-3.35 0-1.23.176-2.369.506-3.352a7.03 7.03 0 0 1 1.43-2.524C5.26 3.82 6.009 3.306 6.89 2.927c.88-.38 1.848-.559 2.927-.559 1.078 0 2.046.179 2.927.559.88.38 1.628.893 2.245 1.586.616.692 1.1 1.541 1.43 2.524z"/><path id="path11_fill" d="M2.707 18.029h8.671v2.3H0V0h2.707v18.029z"/><path id="path12_fill" fill-rule="evenodd" d="M16.638 14.342c.462-1.25.704-2.636.704-4.155 0-1.519-.242-2.904-.704-4.155-.462-1.251-1.122-2.324-2.003-3.217A9.164 9.164 0 0 0 11.51.737C10.3.246 8.957 0 7.483 0H0v20.33h7.483c1.474 0 2.817-.246 4.027-.737a8.609 8.609 0 0 0 3.126-2.056c.858-.871 1.518-1.943 2.002-3.194zm-2.575-7.506c.33.983.506 2.1.506 3.351s-.176 2.346-.506 3.329c-.33.983-.814 1.81-1.43 2.48a5.937 5.937 0 0 1-2.245 1.564c-.88.357-1.849.536-2.927.536H2.707V2.234h4.754c1.078 0 2.047.179 2.927.536.88.358 1.629.894 2.245 1.564.616.693 1.1 1.52 1.43 2.502z"/><path id="path13_fill" d="M12.325.045v2.234H2.707v6.747h7.79v2.144h-7.79v6.926h9.618v2.234H0V0h12.325v.045z"/><path id="path14_fill" fill-rule="evenodd" d="M2.685 20.33v-8.512h2.113c.374 0 .66.067.836.157.176.111.352.268.506.49l5.194 7.262c.242.38.617.58 1.1.58h2.4L9 12.243a3.032 3.032 0 0 0-.902-.872 7.421 7.421 0 0 0 2.069-.804 6.219 6.219 0 0 0 1.54-1.273c.419-.492.749-1.05.969-1.676.22-.625.33-1.296.33-2.01a6.06 6.06 0 0 0-.44-2.324 4.605 4.605 0 0 0-1.343-1.787C10.63 1.005 9.86.647 8.935.38 8.011.134 6.933 0 5.656 0H0v20.33h2.685zm2.84-10.5h-2.84V2.145h2.971c1.563 0 2.73.29 3.521.916.793.625 1.189 1.541 1.189 2.747 0 .604-.11 1.14-.308 1.631-.22.492-.528.916-.925 1.274-.418.357-.924.625-1.518.826-.594.201-1.299.29-2.09.29z"/></defs></svg>
